web/assets/img/functions/990.svg

<svg width="512" height="512" viewBox="0 0 512 512" fill="none" xmlns="http://www.w3.org/2000/svg">
    <path fill-rule="evenodd" clip-rule="evenodd"
          d="M70 386.677V492H442V387.608C435.48 383.376 429.511 381.616 424 381.616C417.415 381.616 410.177 384.129 402.125 390.368C391.51 398.592 380.081 403.31 368 403.31C355.919 403.31 344.49 398.592 333.875 390.368C325.823 384.129 318.585 381.616 312 381.616C305.434 381.616 298.219 384.115 290.195 390.314C279.894 398.592 268.62 403.31 256.538 403.31C244.516 403.31 232.98 398.638 222.094 390.533C214.087 384.788 206.774 382.391 200 382.391C193.207 382.391 185.873 384.801 177.84 390.58C177.663 390.708 177.483 390.829 177.298 390.944C165.509 398.308 153.639 402.535 141.875 402.535C129.903 402.535 119.038 398.153 109.531 390.089C109.282 389.877 109.043 389.653 108.815 389.418C100.533 380.862 93.6244 378 88 378C83.0252 378 77.046 380.239 70 386.677ZM122.814 375.127C112.521 364.62 100.887 358 88 358C74.9577 358 63.1992 364.78 52.8149 375.508C51.0094 377.373 50 379.867 50 382.463V502C50 507.523 54.4772 512 60 512H452C457.523 512 462 507.523 462 502V382.463C462 379.371 460.569 376.452 458.125 374.558C447.51 366.334 436.081 361.616 424 361.616C411.919 361.616 400.49 366.334 389.875 374.558C381.823 380.797 374.585 383.31 368 383.31C361.415 383.31 354.177 380.797 346.125 374.558C335.51 366.334 324.081 361.616 312 361.616C299.919 361.616 288.49 366.334 277.875 374.558C277.825 374.597 277.775 374.636 277.726 374.676C270.099 380.821 263.093 383.31 256.538 383.31C249.922 383.31 242.457 380.773 233.98 374.448C233.934 374.413 233.887 374.379 233.84 374.346C223.206 366.695 211.874 362.391 200 362.391C188.231 362.391 176.994 366.619 166.441 374.144C156.843 380.092 148.716 382.535 141.875 382.535C135.303 382.535 129.028 380.287 122.814 375.127Z"
          fill="#282828"/>
    <path fill-rule="evenodd" clip-rule="evenodd"
          d="M247.279 133.293C251.859 127.064 250.523 118.301 244.293 113.721C238.064 109.14 229.301 110.477 224.721 116.706L184.721 171.106C182.953 173.51 182 176.416 182 179.4V275.4C182 283.132 188.268 289.4 196 289.4C203.732 289.4 210 283.132 210 275.4V183.993L247.279 133.293ZM244.057 130.924L206 182.681V182.68L244.057 130.924C244.763 129.963 245.272 128.918 245.592 127.837C245.272 128.918 244.763 129.963 244.057 130.924ZM190.526 283.77C192.099 284.801 193.98 285.4 196 285.4C197.609 285.4 199.129 285.02 200.475 284.345C199.129 285.02 197.609 285.4 196 285.4C193.98 285.4 192.099 284.801 190.526 283.77ZM266.243 127.204C266.537 128.509 267.1 129.776 267.943 130.924L306 182.68V182.681L267.943 130.924C267.1 129.777 266.537 128.509 266.243 127.204ZM326 275.4V275.4V275.4ZM306 275.4V275.4C306 276.09 306.07 276.764 306.203 277.415C306.07 276.764 306 276.09 306 275.4ZM307.003 279.77C308.625 283.103 312.044 285.4 316 285.4C320.142 285.4 323.696 282.881 325.214 279.292C323.696 282.881 320.142 285.4 316 285.4C312.044 285.4 308.625 283.103 307.003 279.77ZM264.721 133.293C260.141 127.064 261.477 118.301 267.707 113.721C273.936 109.14 282.699 110.477 287.279 116.706L327.279 171.106C329.047 173.51 330 176.416 330 179.4V275.4C330 283.132 323.732 289.4 316 289.4C308.268 289.4 302 283.132 302 275.4V183.993L264.721 133.293Z"
          fill="#282828"/>
    <path d="M236 45H276V125H236V45Z" fill="#282828"/>
    <path fill-rule="evenodd" clip-rule="evenodd"
          d="M226 45C226 39.4772 230.477 35 236 35H276C281.523 35 286 39.4772 286 45V125C286 130.523 281.523 135 276 135H236C230.477 135 226 130.523 226 125V45ZM246 55V115H266V55H246Z"
          fill="#282828"/>
    <path fill-rule="evenodd" clip-rule="evenodd"
          d="M210 307.6V270H182V307.6C182 315.073 188.95 320 196 320C203.05 320 210 315.073 210 307.6Z" fill="#12A71E"/>
    <path fill-rule="evenodd" clip-rule="evenodd"
          d="M330 307.6V270H302V307.6C302 315.073 308.95 320 316 320C323.05 320 330 315.073 330 307.6Z" fill="#12A71E"/>
</svg>

<?xml version="1.0" encoding="utf-8"?>
<!-- Generator: Adobe Illustrator 28.2.0, SVG Export Plug-In . SVG Version: 6.00 Build 0)  -->
<svg version="1.1" id="Calque_1" xmlns="http://www.w3.org/2000/svg" xmlns:xlink="http://www.w3.org/1999/xlink" x="0px" y="0px"
	 viewBox="0 0 512 512" style="enable-background:new 0 0 512 512;" xml:space="preserve">
<style type="text/css">
	.st0{fill-rule:evenodd;clip-rule:evenodd;fill:#282828;}
	.st1{fill:#282828;}
	.st2{fill-rule:evenodd;clip-rule:evenodd;fill:#33B0DF;}
</style>
<path class="st0" d="M247.3,133.3c4.6-6.2,3.2-15-3-19.6c-6.2-4.6-15-3.2-19.6,3l-40,54.4c-1.8,2.4-2.7,5.3-2.7,8.3v96
	c0,7.7,6.3,14,14,14s14-6.3,14-14V184L247.3,133.3z M244.1,130.9L206,182.7v0L244.1,130.9c0.7-1,1.2-2,1.5-3.1
	C245.3,128.9,244.8,130,244.1,130.9z M190.5,283.8c1.6,1,3.5,1.6,5.5,1.6c1.6,0,3.1-0.4,4.5-1.1c-1.3,0.7-2.9,1.1-4.5,1.1
	C194,285.4,192.1,284.8,190.5,283.8z M266.2,127.2c0.3,1.3,0.9,2.6,1.7,3.7l38.1,51.8v0l-38.1-51.8
	C267.1,129.8,266.5,128.5,266.2,127.2z M326,275.4L326,275.4L326,275.4z M306,275.4L306,275.4c0,0.7,0.1,1.4,0.2,2
	C306.1,276.8,306,276.1,306,275.4z M307,279.8c1.6,3.3,5,5.6,9,5.6c4.1,0,7.7-2.5,9.2-6.1c-1.5,3.6-5.1,6.1-9.2,6.1
	C312,285.4,308.6,283.1,307,279.8z M264.7,133.3c-4.6-6.2-3.2-15,3-19.6c6.2-4.6,15-3.2,19.6,3l40,54.4c1.8,2.4,2.7,5.3,2.7,8.3v96
	c0,7.7-6.3,14-14,14s-14-6.3-14-14V184L264.7,133.3z"/>
<path class="st1" d="M236,45h40v80h-40V45z"/>
<path class="st0" d="M226,45c0-5.5,4.5-10,10-10h40c5.5,0,10,4.5,10,10v80c0,5.5-4.5,10-10,10h-40c-5.5,0-10-4.5-10-10V45z M246,55
	v60h20V55H246z"/>
<path class="st2" d="M210,307.6V270h-28v37.6c0,7.5,6.9,12.4,14,12.4S210,315.1,210,307.6z"/>
<path class="st2" d="M330,307.6V270h-28v37.6c0,7.5,7,12.4,14,12.4S330,315.1,330,307.6z"/>
<path class="st0" d="M70,447.8V278.5c0-13.3-20-12.5-20,0c0,12.5,0,223.5,0,223.5c0,5.5,4.5,10,10,10h392c5.5,0,10-4.5,10-10v-44
	l0.3-0.4c-0.1-0.1-0.2-0.2-0.3-0.2V278.5c0-12.5-20-12.5-20,0v168.2c-4.5-1.4-9.1-2.1-13.8-2.1c-12.1,0-23.5,4.7-34.1,12.9
	c-8.1,6.2-15.3,8.8-21.9,8.8s-13.8-2.5-21.9-8.8c-10.6-8.2-22-12.9-34.1-12.9c-12.1,0-23.5,4.7-34.1,12.9l-0.1,0.1l-0.1,0.1
	c-7.6,6.1-14.6,8.6-21.2,8.6c-6.6,0-14.1-2.5-22.6-8.9l-0.1-0.1l-0.1,0c-10.6-7.7-22-12-33.8-12c-11.8,0-23,4.2-33.6,11.8
	c-9.6,5.9-17.7,8.4-24.6,8.4c-6.6,0-12.8-2.2-19.1-7.4c-10.3-10.5-21.9-17.1-34.8-17.1C84.3,441,76.9,443.5,70,447.8z M70,471.1V492
	h372v-23.8c-4.9-2.5-9.5-3.6-13.8-3.6c-6.6,0-13.8,2.5-21.9,8.8c-10.6,8.2-22,12.9-34.1,12.9c-12.1,0-23.5-4.7-34.1-12.9
	c-8.1-6.2-15.3-8.8-21.9-8.8c-6.6,0-13.8,2.5-21.8,8.7c-10.3,8.3-21.6,13-33.7,13c-12,0-23.6-4.7-34.4-12.8
	c-8-5.7-15.3-8.1-22.1-8.1c-6.8,0-14.1,2.4-22.2,8.2l-0.3,0.2l-0.3,0.2c-11.8,7.4-23.7,11.6-35.4,11.6c-12,0-22.8-4.4-32.3-12.4
	l-0.4-0.3l-0.3-0.4c-8.3-8.6-15.2-11.4-20.8-11.4c-5.6,0-12.5,2.9-20.8,11.4L70,471.1z"/>
</svg>
